!!!OTL: Schweizerlied.
!!!OTL-incipit:UFM BERGLI BIN I GESESSE
!!!COM: C. Blum
!!!ARE: Europa, Mitteleuropa, Deutschland; Schweiz
!!!SCT: F0152
!!!TXL: @@GSW
!!!YEM: Copyright 1995, estate of Helmut Schaffrath.
**kern	**text
*ICvox	*
*M3/4	*
*k[]	*
*C:	*
!LO:TX:a:t=Mäßig.	!
{(>8e	1._Ufm
8f)	.
=1	=1
(8g/L	Berg-
8eeJ)	.
4cc	-li
8e	bin_i
8f	ge-
=2	=2
(8g/L	-ſäſ-
8eeJ)	.
4cc}	-ſe,
{8g	ha
8g	be
=3	=3
(8g/L	Vög-
8ffJ)	.
4dd	-le
8f	ʒu-
8f	-ge-
=4	=4
4.e	-ſchaut;
8r}	.
{8e	hänt
8f	ge-
=5	=5
(8gL	-ſun-
8eeJ)	.
4dd	-ge,
8f	hänt
8f	ge-
=6	=6
(8eL	-ſprun-
8ccJ)	.
4b}	-ge,
{(8fL	hänt's
8dJ)	.
=7	=7
(8BL	Naſt-
8aJ)	.
4g	-li
(8fL	ge-
8dJ)	.
=8	=8
4.c	-baut.
8r}	.
!LO:TUP:b	!
{(12eL	.
12b	.
12ccJ)	.
=9	=9
(4ee	.
4dd)	.
!LO:TUP:b	!
(12g/L	.
12b	.
12ddJ)	.
=10	=10
(4ff	.
4ee)}	.
!LO:TUP:a	!
{(12ccL	.
12ee	.
12ggJ)	.
=11	=11
(4.aa	.
8gg)	.
(8ddL	.
8eeJ)	.
=12	=12
2cc}	.
==	==
!!!AGN: Liebes - Lied
!!!ONB: ESAC (Essen Associative Code) Database: FINK
!!!AMT: simple triple
!!!AIN: vox
!!!EED: Helmut Schaffrath
!!!EEV: 1.0
!!Text: J. W. Goethe
!!!source: Musikalischer Hausschatz der Deutschen. Eine Sammlung von über 1000 Liedern und Gesängen mit Singstimmen und Klavierbegleitung. Leipzig, Litterarisches Verlags-Haus.
!!!page: 90
!!!ENC: Anna Maria Matuszewska
!!!EEV: 2025/03/11
*-	*-
